!!!COM: Palestrina, Giovanni Perluigi da
!!!OPR: Missa In semidupl. maj. (II)
!!!OMD: Sanctus
!!!OTL: Hosanna
**kern	**kern	**kern	**kern	**kern
*Ibass	*Itenor	*Itenor	*Icalto	*Icant
!Bassus	!Tenor 2	!Tenor 1	!Altus	!Cantus
*clefF4	*clefGv2	*clefGv2	*clefG2	*clefG2
*k[b-]	*k[b-]	*k[b-]	*k[b-]	*k[b-]
*F:ion	*F:ion	*F:ion	*F:ion	*F:ion
*M4/2	*M4/2	*M4/2	*M4/2	*M4/2
=75	=75	=75	=75	=75
0r	0r	0r	1B-	1r
.	.	.	2G	2r
.	.	.	2F	2f
=76	=76	=76	=76	=76
0r	0r	2r	2B-	2d
.	.	2F	2c	2c
.	.	2D	2d	2f
.	.	2C	2e	2g
=77	=77	=77	=77	=77
0r	0r	2F	2f	2a
.	.	2G	4e	2b-
.	.	.	4d	.
.	.	2A	2c	2cc
.	.	2B-	[2f	4b-
.	.	.	.	4a
=78	=78	=78	=78	=78
1r	0r	1c	2f]	1g
.	.	.	2e	.
1BB-	.	2F	2.d	2f
.	.	[2B-	.	[2d
.	.	.	4c	.
=79	=79	=79	=79	=79
2GG	0r	2B-]	2B-	4d]
.	.	.	.	4e
2FF	.	2A	2c	1f
2BB-	.	1G	2d	.
2C	.	.	4c	2e
.	.	.	4B-	.
=80	=80	=80	=80	=80
2D	1r	1F	2A	2f
4BB-	.	.	2d	2f
4C	.	.	.	.
4D	1F	1r	2B-	2d
4E	.	.	.	.
[2F	.	.	2A	2c
=81	=81	=81	=81	=81
2F]	2D	2r	2d	2f
2E	2C	2G	2e	2g
2D	2F	4F	2f	2a
.	.	4D	.	.
4C	2G	2E	4e	[2cc
4BB-	.	.	4d	.
=82	=82	=82	=82	=82
2.AA	2A	2F	2.c	4cc]
.	.	.	.	4b-
.	2.c	1E	.	2a
4BB-	.	.	4d	.
2C	.	.	2e	2g
.	4B-	.	.	.
2FF	2A	[2C	2f	2f
=83	=83	=83	=83	=83
0C	2G	2C]	2e	2g
.	2F	2c	1f	4a
.	.	.	.	4b-
.	1G	1c	.	1cc
.	.	.	2e	.
=84	=84	=84	=84	=84
[0FF	[0F	[0c	[0f	[0a
=85	=85	=85	=85	=85
0FF]	0F]	0c]	0f]	0a]
==	==	==	==	==
*-	*-	*-	*-	*-
!!!CDT: 1525/^1526/-1594/2/2
!!!OCY: Italia
!!!AGN: Mass (Paraphrase)
!!!AST: renaissance, vocal
!!!ASW: Gregorian Mass
!!!PWK: Masses, Book Mantuan II
!!!RNB: Cadence finals: C
!!!YOR: Le Opere Complete, v. 19, p. 87
!!!YOO: Rome, Italy: Fratelli Scalera
!!!END: 1992//
!!!EED: John Miller
!!!YEC: Copyright 2000, John Miller
!!!YEN: United States of America
!!!YEM: Rights to all derivative electronic formats reserved.
!!!YEM: Refer to licensing agreement for further details.
!!!YEM: This file must be accompanied by the licensing agreement.
!!!YEM: A copy of the licensing agreement may be found at http://www.music-cog.ohio-state.edu/HumdrumDatabases/Palestrina/license.txt
!!!EMD: converted to Humdrum by Bret Aarden
